packages/ui-icons/svg/Line/speed-grader.svg

<svg viewBox="0 0 1920 1920" version="1.1" xmlns="http://www.w3.org/2000/svg">
    <path d="M1865.91247,880.774118 C1884.77365,938.712941 1898.10071,998.571765 1905.55482,1058.88235 C1910.29835,1098.52471 1912.78306,1138.05412 1912.78306,1178.71294 C1912.78306,1219.37176 1910.29835,1258.90118 1905.55482,1298.43059 C1884.54776,1468.52 1817.34776,1630.81647 1711.18306,1767.81412 L1711.18306,1767.81412 L1621.95953,1698.69412 C1715.70071,1577.73412 1774.99482,1434.52471 1793.51718,1284.76471 C1797.696,1249.75294 1799.84188,1214.74118 1799.84188,1178.71294 C1799.84188,1142.68471 1797.696,1107.67294 1793.40424,1072.54824 C1786.96659,1019.57882 1775.22071,966.835294 1758.50541,915.898824 L1758.50541,915.898824 Z M112.037647,1284.76471 C130.56,1434.52471 189.854118,1577.73412 283.595294,1698.69412 L283.595294,1698.69412 L194.371765,1767.81412 C88.2070588,1630.81647 21.0070588,1468.52 -5.68434189e-14,1298.54353 L-5.68434189e-14,1298.54353 Z M1816.33129,456.589647 L1896.18071,536.552 L1009.25365,1423.47906 L498.759529,912.984941 L578.608941,833.135529 L1009.25365,1263.78024 L1816.33129,456.589647 Z M194.371765,589.611765 L283.595294,658.731765 C189.854118,779.691765 130.56,922.901176 112.037647,1072.66118 L112.037647,1072.66118 L-5.68434189e-14,1058.88235 C21.0070588,888.905882 88.2070588,726.609412 194.371765,589.611765 L194.371765,589.611765 Z M1072.63624,225.952471 C1242.61271,246.846588 1404.90918,314.159529 1541.90682,420.324235 L1541.90682,420.324235 L1472.78682,509.547765 C1351.71388,415.806588 1208.61741,356.512471 1058.85741,337.990118 L1058.85741,337.990118 Z M832.941176,225.941176 L846.72,337.978824 C696.96,356.501176 553.750588,415.795294 432.790588,509.536471 L432.790588,509.536471 L363.670588,420.312941 C500.668235,314.148235 662.964706,246.948235 832.941176,225.941176 L832.941176,225.941176 Z" stroke="none" stroke-width="1" fill-rule="evenodd"/>
</svg>

<svg viewBox="0 0 1920 1920" xmlns="http://www.w3.org/2000/svg">
    <path d="M1865.912 880.774c18.862 57.939 32.189 117.798 39.643 178.108 4.743 39.643 7.228 79.172 7.228 119.83 0 40.66-2.485 80.19-7.228 119.719-21.007 170.089-88.207 332.385-194.372 469.383l-89.223-69.12c93.74-120.96 153.035-264.17 171.557-413.93 4.179-35.011 6.325-70.023 6.325-106.051 0-36.028-2.146-71.04-6.438-106.165-6.437-52.97-18.183-105.713-34.899-156.65Zm-1753.874 403.99c18.522 149.76 77.816 292.97 171.557 413.93l-89.223 69.12C88.207 1630.816 21.007 1468.52 0 1298.544ZM1816.33 456.59l79.85 79.962-886.927 886.927L498.76 912.985l79.849-79.85 430.645 430.645 807.077-807.19ZM194.371 589.612l89.224 69.12c-93.74 120.96-153.035 264.17-171.557 413.93L0 1058.881c21.007-169.976 88.207-332.273 194.372-469.27Zm878.265-363.66c169.977 20.895 332.273 88.208 469.27 194.372l-69.12 89.224c-121.072-93.741-264.169-153.036-413.929-171.558Zm-239.695-.01 13.779 112.037C696.96 356.5 553.75 415.795 432.79 509.536l-69.12-89.223C500.669 314.148 662.966 246.948 832.942 225.94Z" fill-rule="evenodd"/>
</svg>
